X:84
T:Courtneys Rando. LIT.084
M:2/4
Q:1/4=115
L:1/8
B:Wm. Litten MS, 1802
Z:Village Music Project 2017 Anne Wride
K:G
d2 Bd | BA/G/ Bd | Bd B/A/G | cA Ac |
Bd c/B/A/G/ | Bd d2 | Bd ce | dG G2 :|
|: e/f/g dB | e/f/g dB | e/f/g dB | cA A2 |
e/f/g dB | e/f/g dc | Bd ce | dG G2 :|

